X:495
T: O MODER DE FINKEN SIND DUD
N: E1752
O: Europa, Mitteleuropa, Deutschland, Rheinland, Koeln
R: Scherz - Lied, Fastnacht
M: 3/8
L: 1/16
K: F
 | c6 | A3BA2 | G3FG2 | F4z2 |
c6 | A3BA2 | G3FG2 | F4
G2 | G2G2G2 | G2G2G2 | A2c2A2 | F2F2
F2 | G2G2G2 | G2G2G2 | A2c2A2 | F2F2z2 |
c6 | A3BA2 | G3FG2 | F4z2 |
c6 | A3BA2 | G3FG2 | F4z2

@@@ Tune index: 5179
